speaky-school/img/illustration-p6.svg

<svg width="300" height="150" viewBox="0 0 300 150" fill="none" xmlns="http://www.w3.org/2000/svg">
<g clip-path="url(#clip0)">
<path d="M150 150L300 150V0L150 0L150 150Z" fill="#FDE9D4"/>
<mask id="path-2-inside-1" fill="white">
<path d="M300 160.714C300 140.823 292.098 121.747 278.033 107.681C263.968 93.6161 244.891 85.7144 225 85.7144C205.109 85.7144 186.032 93.6161 171.967 107.681C157.902 121.747 150 140.823 150 160.714H187.297C187.297 150.715 191.269 141.125 198.34 134.054C205.411 126.984 215.001 123.012 225 123.012C234.999 123.012 244.589 126.984 251.66 134.054C258.731 141.125 262.703 150.715 262.703 160.714H300Z"/>
</mask>
<path d="M300 160.714C300 140.823 292.098 121.747 278.033 107.681C263.968 93.6161 244.891 85.7144 225 85.7144C205.109 85.7144 186.032 93.6161 171.967 107.681C157.902 121.747 150 140.823 150 160.714H187.297C187.297 150.715 191.269 141.125 198.34 134.054C205.411 126.984 215.001 123.012 225 123.012C234.999 123.012 244.589 126.984 251.66 134.054C258.731 141.125 262.703 150.715 262.703 160.714H300Z" stroke="#FFCC1A" stroke-width="20" mask="url(#path-2-inside-1)"/>
<mask id="path-3-outside-2" maskUnits="userSpaceOnUse" x="199.429" y="19.6431" width="52" height="52" fill="black">
<rect fill="white" x="199.429" y="19.6431" width="52" height="52"/>
<path fill-rule="evenodd" clip-rule="evenodd" d="M228.929 69.6431H221.072V55.556L211.111 65.5168L205.555 59.961L215.515 50.0004H201.429V42.1433H215.516L205.555 32.1818L211.11 26.6259L221.072 36.5871V22.5002H228.929V36.5872L238.89 26.6259L244.446 32.1818L234.484 42.1433H248.572V50.0004H234.485L244.445 59.961L238.89 65.5168L228.929 55.5559V69.6431Z"/>
</mask>
<path fill-rule="evenodd" clip-rule="evenodd" d="M228.929 69.6431H221.072V55.556L211.111 65.5168L205.555 59.961L215.515 50.0004H201.429V42.1433H215.516L205.555 32.1818L211.11 26.6259L221.072 36.5871V22.5002H228.929V36.5872L238.89 26.6259L244.446 32.1818L234.484 42.1433H248.572V50.0004H234.485L244.445 59.961L238.89 65.5168L228.929 55.5559V69.6431Z" fill="#FC8B4C"/>
<path d="M221.072 69.6431V71.6431C219.967 71.6431 219.072 70.7476 219.072 69.6431H221.072ZM228.929 69.6431H230.929C230.929 70.7476 230.033 71.6431 228.929 71.6431V69.6431ZM221.072 55.556L219.657 54.1418C220.229 53.5698 221.09 53.3987 221.837 53.7082C222.584 54.0178 223.072 54.7471 223.072 55.556H221.072ZM211.111 65.5168L212.525 66.931C211.744 67.7121 210.478 67.7121 209.697 66.931L211.111 65.5168ZM205.555 59.961L204.141 61.3752C203.36 60.5941 203.36 59.3278 204.141 58.5467L205.555 59.961ZM215.515 50.0004V48.0004C216.324 48.0004 217.054 48.4877 217.363 49.2351C217.673 49.9824 217.502 50.8427 216.93 51.4147L215.515 50.0004ZM201.429 50.0004V52.0004C200.324 52.0004 199.429 51.105 199.429 50.0004H201.429ZM201.429 42.1433H199.429C199.429 41.0387 200.324 40.1433 201.429 40.1433V42.1433ZM215.516 42.1433L216.93 40.7291C217.502 41.3011 217.673 42.1613 217.364 42.9087C217.054 43.656 216.325 44.1433 215.516 44.1433V42.1433ZM205.555 32.1818L204.14 33.596C203.359 32.8149 203.359 31.5486 204.14 30.7675L205.555 32.1818ZM211.11 26.6259L209.696 25.2117C210.071 24.8366 210.58 24.6259 211.11 24.6259C211.641 24.6259 212.149 24.8366 212.525 25.2117L211.11 26.6259ZM221.072 36.5871H223.072C223.072 37.396 222.584 38.1253 221.837 38.4349C221.09 38.7444 220.229 38.5733 219.657 38.0013L221.072 36.5871ZM221.072 22.5002H219.072C219.072 21.3956 219.967 20.5002 221.072 20.5002V22.5002ZM228.929 22.5002V20.5002C230.033 20.5002 230.929 21.3956 230.929 22.5002H228.929ZM228.929 36.5872L230.343 38.0014C229.771 38.5734 228.911 38.7445 228.163 38.4349C227.416 38.1253 226.929 37.3961 226.929 36.5872H228.929ZM238.89 26.6259L237.476 25.2117C237.851 24.8366 238.359 24.6259 238.89 24.6259C239.42 24.6259 239.929 24.8366 240.304 25.2117L238.89 26.6259ZM244.446 32.1818L245.86 30.7675C246.641 31.5486 246.641 32.8149 245.86 33.596L244.446 32.1818ZM234.484 42.1433V44.1433C233.675 44.1433 232.946 43.656 232.636 42.9087C232.327 42.1613 232.498 41.3011 233.07 40.7291L234.484 42.1433ZM248.572 42.1433V40.1433C249.676 40.1433 250.572 41.0387 250.572 42.1433H248.572ZM248.572 50.0004H250.572C250.572 51.105 249.676 52.0004 248.572 52.0004V50.0004ZM234.485 50.0004L233.071 51.4147C232.499 50.8427 232.328 49.9824 232.637 49.2351C232.947 48.4877 233.676 48.0004 234.485 48.0004V50.0004ZM244.445 59.961L245.86 58.5467C246.641 59.3278 246.641 60.5941 245.86 61.3752L244.445 59.961ZM238.89 65.5168L240.304 66.931C239.929 67.3061 239.42 67.5168 238.89 67.5168C238.359 67.5168 237.85 67.3061 237.475 66.931L238.89 65.5168ZM228.929 55.5559H226.929C226.929 54.747 227.416 54.0177 228.163 53.7082C228.911 53.3986 229.771 53.5697 230.343 54.1417L228.929 55.5559ZM221.072 67.6431H228.929V71.6431H221.072V67.6431ZM223.072 55.556V69.6431H219.072V55.556H223.072ZM209.697 64.1026L219.657 54.1418L222.486 56.9702L212.525 66.931L209.697 64.1026ZM206.969 58.5467L212.525 64.1026L209.697 66.931L204.141 61.3752L206.969 58.5467ZM216.93 51.4147L206.969 61.3752L204.141 58.5467L214.101 48.5862L216.93 51.4147ZM201.429 48.0004H215.515V52.0004H201.429V48.0004ZM203.429 42.1433V50.0004H199.429V42.1433H203.429ZM215.516 44.1433H201.429V40.1433H215.516V44.1433ZM206.969 30.7675L216.93 40.7291L214.102 43.5575L204.14 33.596L206.969 30.7675ZM212.525 28.0401L206.969 33.596L204.14 30.7675L209.696 25.2117L212.525 28.0401ZM219.657 38.0013L209.696 28.0401L212.525 25.2117L222.486 35.1729L219.657 38.0013ZM223.072 22.5002V36.5871H219.072V22.5002H223.072ZM228.929 24.5002H221.072V20.5002H228.929V24.5002ZM226.929 36.5872V22.5002H230.929V36.5872H226.929ZM240.304 28.0401L230.343 38.0014L227.514 35.1729L237.476 25.2117L240.304 28.0401ZM243.032 33.596L237.476 28.0401L240.304 25.2117L245.86 30.7675L243.032 33.596ZM233.07 40.7291L243.032 30.7675L245.86 33.596L235.898 43.5575L233.07 40.7291ZM248.572 44.1433H234.484V40.1433H248.572V44.1433ZM246.572 50.0004V42.1433H250.572V50.0004H246.572ZM234.485 48.0004H248.572V52.0004H234.485V48.0004ZM243.031 61.3752L233.071 51.4147L235.899 48.5862L245.86 58.5467L243.031 61.3752ZM237.475 64.1026L243.031 58.5467L245.86 61.3752L240.304 66.931L237.475 64.1026ZM230.343 54.1417L240.304 64.1026L237.475 66.931L227.514 56.9702L230.343 54.1417ZM226.929 69.6431V55.5559H230.929V69.6431H226.929Z" fill="#236967" mask="url(#path-3-outside-2)"/>
</g>
<rect width="150" height="150" fill="#FFCC1A"/>
<circle cx="75.7614" cy="76.0713" r="53.5714" transform="rotate(-45 75.7614 76.0713)" fill="#236967"/>
<mask id="path-7-inside-3" fill="white">
<path d="M37.881 38.1904C27.8344 48.237 22.1903 61.8631 22.1903 76.0711C22.1903 90.2791 27.8344 103.905 37.881 113.952C47.9276 123.998 61.5537 129.643 75.7617 129.643C89.9697 129.643 103.596 123.998 113.642 113.952L75.7617 76.0711L37.881 38.1904Z"/>
</mask>
<path d="M37.881 38.1904C27.8344 48.237 22.1903 61.8631 22.1903 76.0711C22.1903 90.2791 27.8344 103.905 37.881 113.952C47.9276 123.998 61.5537 129.643 75.7617 129.643C89.9697 129.643 103.596 123.998 113.642 113.952L75.7617 76.0711L37.881 38.1904Z" fill="#FE7167" stroke="black" stroke-width="20" mask="url(#path-7-inside-3)"/>
<defs>
<clipPath id="clip0">
<rect width="150" height="150" fill="white" transform="matrix(1 0 0 -1 150 150)"/>
</clipPath>
</defs>
</svg>

<svg width="300" height="150" fill="none" xmlns="http://www.w3.org/2000/svg"><g clip-path="url(#clip0)"><path d="M150 150h150V0H150v150z" fill="#FDE9D4"/><mask id="a" fill="#fff"><path d="M300 160.714a75.003 75.003 0 0 0-75-75 75.001 75.001 0 0 0-75 75h37.297a37.703 37.703 0 0 1 75.406 0H300z"/></mask><path d="M300 160.714a75.003 75.003 0 0 0-75-75 75.001 75.001 0 0 0-75 75h37.297a37.703 37.703 0 0 1 75.406 0H300z" stroke="#FFCC1A" stroke-width="20" mask="url(#a)"/><mask id="b" maskUnits="userSpaceOnUse" x="199.429" y="19.643" width="52" height="52" fill="#000"><path fill="#fff" d="M199.429 19.643h52v52h-52z"/><path fill-rule="evenodd" clip-rule="evenodd" d="M228.929 69.643h-7.857V55.556l-9.961 9.96-5.556-5.555 9.96-9.96h-14.086v-7.858h14.087l-9.961-9.961 5.555-5.556 9.962 9.961V22.5h7.857v14.087l9.961-9.961 5.556 5.556-9.962 9.961h14.088V50h-14.087l9.96 9.961-5.555 5.556-9.961-9.961v14.087z"/></mask><path fill-rule="evenodd" clip-rule="evenodd" d="M228.929 69.643h-7.857V55.556l-9.961 9.96-5.556-5.555 9.96-9.96h-14.086v-7.858h14.087l-9.961-9.961 5.555-5.556 9.962 9.961V22.5h7.857v14.087l9.961-9.961 5.556 5.556-9.962 9.961h14.088V50h-14.087l9.96 9.961-5.555 5.556-9.961-9.961v14.087z" fill="#FC8B4C"/><path d="M221.072 69.643v2a2 2 0 0 1-2-2h2zm7.857 0h2a2 2 0 0 1-2 2v-2zm-7.857-14.087l-1.415-1.414a2 2 0 0 1 3.415 1.414h-2zm-9.961 9.96l1.414 1.415a2 2 0 0 1-2.828 0l1.414-1.414zm-5.556-5.555l-1.414 1.414a2 2 0 0 1 0-2.828l1.414 1.414zm9.96-9.96v-2a2 2 0 0 1 1.415 3.414L215.515 50zm-14.086 0v2a2 2 0 0 1-2-2h2zm0-7.858h-2a2 2 0 0 1 2-2v2zm14.087 0l1.414-1.414a2.001 2.001 0 0 1-1.414 3.414v-2zm-9.961-9.961l-1.415 1.414a2 2 0 0 1 0-2.828l1.415 1.414zm5.555-5.556l-1.414-1.414a2 2 0 0 1 2.829 0l-1.415 1.414zm9.962 9.961h2a2.001 2.001 0 0 1-3.415 1.414l1.415-1.414zm0-14.087h-2a2 2 0 0 1 2-2v2zm7.857 0v-2a2 2 0 0 1 2 2h-2zm0 14.087l1.414 1.414a2 2 0 0 1-3.414-1.414h2zm9.961-9.961l-1.414-1.414a1.998 1.998 0 0 1 2.828 0l-1.414 1.414zm5.556 5.556l1.414-1.415a2 2 0 0 1 0 2.829l-1.414-1.414zm-9.962 9.961v2a2 2 0 0 1-1.414-3.414l1.414 1.414zm14.088 0v-2a2 2 0 0 1 2 2h-2zm0 7.857h2a2 2 0 0 1-2 2v-2zm-14.087 0l-1.414 1.415A2.001 2.001 0 0 1 234.485 48v2zm9.96 9.961l1.415-1.414a2 2 0 0 1 0 2.828l-1.415-1.414zm-5.555 5.556l1.414 1.414a2 2 0 0 1-2.829 0l1.415-1.414zm-9.961-9.961h-2a2 2 0 0 1 3.414-1.414l-1.414 1.414zm-7.857 12.087h7.857v4h-7.857v-4zm2-12.087v14.087h-4V55.556h4zm-13.375 8.547l9.96-9.961 2.829 2.828-9.961 9.961-2.828-2.828zm-2.728-5.556l5.556 5.556-2.828 2.828-5.556-5.556 2.828-2.828zm9.961-7.132l-9.961 9.96-2.828-2.828 9.96-9.96 2.829 2.828zM201.429 48h14.086v4h-14.086v-4zm2-5.857V50h-4v-7.857h4zm12.087 2h-14.087v-4h14.087v4zm-8.547-13.376l9.961 9.962-2.828 2.828-9.962-9.961 2.829-2.828zm5.556-2.727l-5.556 5.556-2.829-2.828 5.556-5.556 2.829 2.828zm7.132 9.961l-9.961-9.96 2.829-2.83 9.961 9.962L219.657 38zm3.415-15.5v14.086h-4V22.5h4zm5.857 2h-7.857v-4h7.857v4zm-2 12.086V22.5h4v14.087h-4zm13.375-8.547l-9.961 9.961-2.829-2.828 9.962-9.961 2.828 2.828zm2.728 5.556l-5.556-5.556 2.828-2.828 5.556 5.555-2.828 2.829zm-9.962 7.133l9.962-9.962 2.828 2.829-9.962 9.962-2.828-2.829zm15.502 3.414h-14.088v-4h14.088v4zm-2 5.857v-7.857h4V50h-4zm-12.087-2h14.087v4h-14.087v-4zm8.546 13.375l-9.96-9.96 2.828-2.829 9.961 9.96-2.829 2.83zm-5.556 2.728l5.556-5.556 2.829 2.828-5.556 5.556-2.829-2.828zm-7.132-9.961l9.961 9.96-2.829 2.829-9.961-9.96 2.829-2.83zm-3.414 15.501V55.556h4v14.087h-4z" fill="#236967" mask="url(#b)"/></g><path fill="#FFCC1A" d="M0 0h150v150H0z"/><circle cx="75.761" cy="76.071" r="53.571" transform="rotate(-45 75.761 76.071)" fill="#236967"/><mask id="c" fill="#fff"><path d="M37.881 38.19a53.571 53.571 0 0 0 75.761 75.762l-37.88-37.88L37.88 38.19z"/></mask><path d="M37.881 38.19a53.571 53.571 0 0 0 75.761 75.762l-37.88-37.88L37.88 38.19z" fill="#FE7167" stroke="#000" stroke-width="20" mask="url(#c)"/><defs><clipPath id="clip0"><path fill="#fff" transform="matrix(1 0 0 -1 150 150)" d="M0 0h150v150H0z"/></clipPath></defs></svg>
